svgs/thin/skull.svg

<svg xmlns="http://www.w3.org/2000/svg" viewBox="0 0 512 512"><!--! Font Awesome Pro 6.4.2 by @fontawesome - https://fontawesome.com License - https://fontawesome.com/license (Commercial License) Copyright 2023 Fonticons, Inc. --><path d="M406.8 385.8c54.9-38.5 89.2-97 89.2-161.8C496 111.1 390.6 16 256 16S16 111.1 16 224c0 64.8 34.3 123.3 89.2 161.8c4.4 3.1 6.9 8.1 6.8 13.5l0 .8v64c0 17.7 14.3 32 32 32h40V448c0-4.4 3.6-8 8-8s8 3.6 8 8v48h48V448c0-4.4 3.6-8 8-8s8 3.6 8 8v48h48V448c0-4.4 3.6-8 8-8s8 3.6 8 8v48h40c17.7 0 32-14.3 32-32V400l0-.8c-.1-5.3 2.4-10.4 6.8-13.5zM312 512H264 248 200 184 144c-26.5 0-48-21.5-48-48V400c0-.4 0-.7 0-1.1C37.5 357.8 0 294.7 0 224C0 100.3 114.6 0 256 0S512 100.3 512 224c0 70.7-37.5 133.8-96 174.9c0 .4 0 .7 0 1.1v64c0 26.5-21.5 48-48 48H328 312zM208 256a48 48 0 1 0 -96 0 48 48 0 1 0 96 0zM96 256a64 64 0 1 1 128 0A64 64 0 1 1 96 256zm256 48a48 48 0 1 0 0-96 48 48 0 1 0 0 96zm0-112a64 64 0 1 1 0 128 64 64 0 1 1 0-128z"/></svg>

<svg xmlns="http://www.w3.org/2000/svg" viewBox="0 0 512 512"><!--! Font Awesome Pro 6.1.1 by @fontawesome - https://fontawesome.com License - https://fontawesome.com/license (Commercial License) Copyright 2022 Fonticons, Inc. --><path d="M224 256C224 291.3 195.3 320 160 320C124.7 320 96 291.3 96 256C96 220.7 124.7 192 160 192C195.3 192 224 220.7 224 256zM160 208C133.5 208 112 229.5 112 256C112 282.5 133.5 304 160 304C186.5 304 208 282.5 208 256C208 229.5 186.5 208 160 208zM288 256C288 220.7 316.7 192 352 192C387.3 192 416 220.7 416 256C416 291.3 387.3 320 352 320C316.7 320 288 291.3 288 256zM352 304C378.5 304 400 282.5 400 256C400 229.5 378.5 208 352 208C325.5 208 304 229.5 304 256C304 282.5 325.5 304 352 304zM144 512C117.5 512 96 490.5 96 464V400C96 399.6 96 399.3 96.01 398.9C37.48 357.8 0 294.7 0 224C0 100.3 114.6 0 256 0C397.4 0 512 100.3 512 224C512 294.7 474.5 357.8 415.1 398.9C415.1 399.3 416 399.6 416 400V464C416 490.5 394.5 512 368 512H144zM496 224C496 111.1 390.6 16 256 16C121.4 16 16 111.1 16 224C16 288.8 50.3 347.3 105.2 385.8C109.6 388.8 112.1 393.9 112 399.2L112 400V464C112 481.7 126.3 496 144 496H184V448C184 443.6 187.6 440 192 440C196.4 440 200 443.6 200 448V496H248V448C248 443.6 251.6 440 256 440C260.4 440 264 443.6 264 448V496H312V448C312 443.6 315.6 440 320 440C324.4 440 328 443.6 328 448V496H368C385.7 496 400 481.7 400 464V400L399.1 399.2C399.9 393.9 402.4 388.9 406.8 385.8C461.7 347.3 496 288.8 496 224V224z"/></svg>
